!!!!SEGMENT: pl-gd--ee-1638--007-018_marenzio-luca--il-terzo-libro-de-madrigalia-a-sei-voci-piangea-filli.krn
!!!cenid: 15xx:859
!!!COM: Marenzio, Luca
!!!COM-rismID: pe30003955
!!!CDT: ~1553-1599/08/22
!!!CNT: Italian
!!!GTL: Il Terzo Libro de madrigalia a sei voci
!!!OTL: Piangea Filli
!!!OMV: 018
!!!PDT: 1585
!!!AGN:
!!!SMS-siglum: PL-GD
!!!SMS-shelfmark: Ee 1638
!!!SMS-variant:
!!!SMS-altvar:
!!!SMS-shelfwork: 007-018 G
!!!NIFC-rismSourceID: 990039250
!!!NIFC-islandoraID: pl-gd:57883
!!!URL-pdf-islandora: https://repozytorium.nifc.pl/islandora/object/pl-gd%3A57883/datastream/PDF/view
!!!URL-scan: https://polish.musicsources.pl/pl/lokalizacje/galeria/klocki-introligatorskie/655 @EN{Scan on Polish Music Herritage in Open Access Website} @PL{Skany w portalu Dziedzictwo Muzyki Polskiej w otwartym dostępie}
!!!ONB-nifc: UWAGA: zbiór na stronach: Canto: s. 694-704, Alto: s. 542-552, Tenore: s. 390-400, Basso: s. 237-248, Quinto: s. 85-96, Sesto: s. 3-14. Uwaga: utwory podzielone wg tytułów w spisach treści dostępnych na końcu każdej księgi głosowej.
!!!AIN: 1 alto 1 bass  1 soprn 1 tenor 2 vox
!!!key: d
**kern	**text	**kern	**text	**kern	**text	**kern	**text	**kern	**text	**kern	**text
*part6	*part6	*part5	*part5	*part4	*part4	*part3	*part3	*part2	*part2	*part1	*part1
*staff6	*staff6	*staff5	*staff5	*staff4	*staff4	*staff3	*staff3	*staff2	*staff2	*staff1	*staff1
*I"SESTO	*	*I"QVINTO	*	*I"BASSO	*	*I"TENORE	*	*I"ALTO	*	*I"CANTO	*
*I'V II	*	*I'V I	*	*I'B	*	*I'T	*	*I'A	*	*I'S	*
*ICvox	*	*ICvox	*	*ICvox	*	*ICvox	*	*ICvox	*	*ICvox	*
*Ivox	*	*Ivox	*	*Ibass 	*	*Itenor	*	*Ialto	*	*Isoprn	*
*clefC3	*	*clefC3	*	*clefF3	*	*clefC3	*	*clefC2	*	*clefG2	*
*k[b-]	*	*k[b-]	*	*k[b-]	*	*k[b-]	*	*k[b-]	*	*k[b-]	*
*d:	*	*d:	*	*d:	*	*d:	*	*d:	*	*d:	*
*M2/1	*	*M2/1	*	*M2/1	*	*M2/1	*	*M2/1	*	*M2/1	*
*met(C)	*	*met(C)	*	*met(C)	*	*met(C)	*	*met(C)	*	*met(C)	*
=1-	=1-	=1-	=1-	=1-	=1-	=1-	=1-	=1-	=1-	=1-	=1-
!	!	!	!	!LO:TX:t=P:problem:podwójnie zapisany znak przykluczowy, kolejno: BB- B-	!	!	!	!	!	!	!
!	!	!	!	!LO:TX:b:i:t=PIangea Filli	!	!	!LO:TX:t=P:problem:podwójnie zapisany znak przykluczowy, kolejno: B- b-	!	!	!	!
00r	.	1e	PIan-	00r	.	1A	PIan-	1a	PIan-	1cc#X	PIan-
.	.	1e	-gea	.	.	1A	-gea	1a	-gea	1cc#	-gea
=2-	=2-	=2-	=2-	=2-	=2-	=2-	=2-	=2-	=2-	=2-	=2-
!	!	!	!	!	!	!	!	!LO:N:acc=#	!	!	!
.	.	1g	Fil-	.	.	1G	Fil-	1bn	Fil-	1dd	Fil-
.	.	1g	-li	.	.	1G	-li	1b	-li	1dd	-li
=3-	=3-	=3-	=3-	=3-	=3-	=3-	=3-	=3-	=3-	=3-	=3-
00r	.	2r	.	00r	.	2r	.	2r	.	2r	.
.	.	2.g\	e	.	.	2.c/	e	2.cc\	e	2.ee\	e
.	.	4g\	ri-	.	.	4c/	ri-	4cc\	ri-	4ee\	ri-
.	.	4g\	-uolt'	.	.	4c/	-uol-	4cc\	-uol-	4ee\	-uol-
.	.	4.a\	am-	.	.	4.f\	-te	4.cc\	-te am-	4.ff\	-te am-
=4-	=4-	=4-	=4-	=4-	=4-	=4-	=4-	=4-	=4-	=4-	=4-
.	.	.	.	.	.	.	am-	.	.	.	.
.	.	8a\	-be	.	.	8f\	-be	8cc\	-be	8ff\	-be
.	.	4g\	le	.	.	4g\	le	4b-y\	le	4dd\	le
.	.	1g	lu-	.	.	1e-X	lu-	1b-	lu-	1ee-X	lu-
.	.	4f\	-ci	.	.	4B-/	-ci	4b-\	-ci	4dd\	-ci
.	.	4d\	Al	.	.	4B-/	Al	4b-\	Al	4ff\	Al
*	*	*	*	*	*	*	*	*custos:cc	*	*custos:ff	*
!	!	!	!	!	!	!	!	!LO:LB:g=original	!	!LO:LB:g=original	!
=5-	=5-	=5-	=5-	=5-	=5-	=5-	=5-	=5-	=5-	=5-	=5-
00r	.	1a	ciel	00r	.	1f	Ciel	1cc	Ciel	1ff	Ciel
*	*	*	*	*	*	*custos:B-	*	*	*	*	*
!	!	!	!	!	!	!LO:LB:g=original	!	!	!	!	!
.	.	2f\	ch'an	.	.	2B-/	ch'an	2b-\	ch'an	2dd\	ch'an-
*	*	*custos:f	*	*	*	*	*	*	*	*	*
!	!	!LO:LB:g=original	!	!	!	!	!	!	!	!	!
.	.	1f\	ch'ei	.	.	1B-/	ch'ei	1b-\	ch'ei	1dd\	-ch'ei
=6-	=6-	=6-	=6-	=6-	=6-	=6-	=6-	=6-	=6-	=6-	=6-
.	.	4r	.	.	.	2d\	pian-	4r	.	4r	.
.	.	4d\	pian-	.	.	.	.	4f\	pian-	4a/	pian-
.	.	1c#X	-ge-	.	.	1A	-ge-	1e	-gea	1a	-ge-
=7-	=7-	=7-	=7-	=7-	=7-	=7-	=7-	=7-	=7-	=7-	=7-
1r	.	1c#yX	-a	1r	.	1A	-a	1e	O	1a	-a
2e\	O	1r	.	2A\	O	2c#X/	O	2a\	Tir-	4r	.
.	.	.	.	.	.	.	.	.	.	4eeny\	O
2.e\	Tir-	.	.	2.A\	Tir-	2.c#/	Tir-	2.a\	-ſi o	2.aa\	Tir-
=8-	=8-	=8-	=8-	=8-	=8-	=8-	=8-	=8-	=8-	=8-	=8-
.	.	1r	.	.	.	.	.	.	.	.	.
4e\	-ſi o	.	.	4A\	-ſi o	4c#yX/	-ſi o	4a\	-ſio	4ee\	-ſio
1d	Tir-	.	.	2D/	Tir-	2d\	Tir-	2a\	Tir-	2ff\	Tir-
.	.	2r	.	1A	-ſi	1eny	-ſi	1a	-ſi	1ee	-ſi
2c#X/	-ſi	1A/	pur	.	.	.	.	.	.	.	.
=9-	=9-	=9-	=9-	=9-	=9-	=9-	=9-	=9-	=9-	=9-	=9-
4r	.	.	.	2F/	pur	4r	.	00r	.	0r	.
4f\	pur	.	.	.	.	4cny/	pur	.	.	.	.
1f	meſ-	1cny	meſ-	1F	me-	1A	meſ-	.	.	.	.
4f\	-ta	4c/	-ta	4F/	-ſta	4A/	-ta	.	.	.	.
2d\	di-	4B-/	di-	4G\	di-	4G/	dic-	.	.	.	.
*custos:c	*	*	*	*	*	*	*	*	*	*	*
!LO:LB:g=original	!	!	!	!	!	!	!	!	!	!	!
=10-	=10-	=10-	=10-	=10-	=10-	=10-	=10-	=10-	=10-	=10-	=10-
.	.	1G	-ce-	1E-X	-ce-	1.g	-ea	.	.	0r	.
8cny/	-ce-	.	.	.	.	.	.	.	.	.	.
8B-/	.	.	.	.	.	.	.	.	.	.	.
2c/	.	.	.	.	.	.	.	.	.	.	.
*	*	*	*	*custos:D	*	*	*	*	*	*	*
!	!	!	!	!LO:LB:g=original	!	!	!	!	!	!	!
1d	-a	1A	-a	1D	-a	.	.	.	.	.	.
.	.	.	.	.	.	2f#X\	.	.	.	.	.
=11-	=11-	=11-	=11-	=11-	=11-	=11-	=11-	=11-	=11-	=11-	=11-
2e\	O	2c#X/	O	2A\	O	0r	.	2a\	O	4r	.
.	.	.	.	.	.	.	.	.	.	4ee\	O
2.e\	Tir-	2.c#/	Tir-	2.A\	Tir-	.	.	2.a\	Tir-	2.aa\	Tir-
4d\	-ſi o	4c#/	-ſi o	4A\	-ſi o	.	.	4a\	-ſi o	4ee\	-ſi o
1d\	Tir-	2d\	Tir-	2D/	Tir-	.	.	2a\	Tir-	2ff\	Tir
*	*	*	*	*	*	*	*	*	*	*custos:ee	*
!	!	!	!	!	!	!	!	!	!	!LO:LB:g=original	!
=12-	=12-	=12-	=12-	=12-	=12-	=12-	=12-	=12-	=12-	=12-	=12-
.	.	1e	-ſi	1A	-ſi	1r	.	1a	-ſi	1ee	-ſi
2c#X/	-ſi	.	.	.	.	.	.	.	.	.	.
!	!	!	!	!	!	!	!	!LO:N:acc=#	!	!	!
1r	.	4.g\	mor-	4.G\	mor-	4.d\	mor-	4.bn\	mor-	1r	.
.	.	8g\	-mo-	8Eny/	-mo-	8c/	-mo-	8cc\	-mo-	.	.
*	*	*	*	*	*	*custos:c	*	*	*	*	*
!	!	!	!	!	!	!LO:LB:g=original	!	!	!	!	!
.	.	4f\	-ra-	4F/	-ra-	4c/	-ra-	4a\	-ra-	.	.
!	!	!	!	!	!	!LO:N:acc=#	!	!	!	!	!
.	.	4d\	-uan	4G\	-uan	4Bn/	-uan	4g\	-uan	.	.
*	*	*custos:e	*	*	*	*	*	*custos:g	*	*	*
!	!	!LO:LB:g=original	!	!	!	!	!	!LO:LB:g=original	!	!	!
=13-	=13-	=13-	=13-	=13-	=13-	=13-	=13-	=13-	=13-	=13-	=13-
8e\	l'on-	8e\	l'on-	1C	l'on-	8c\	l'on-	8g\	l'on-	0r	.
8f\	.	8d\	.	.	.	8d\	.	8f\	.	.	.
8g\	.	8cny\	.	.	.	8e\	.	8e/	.	.	.
8f\	.	8d\	.	.	.	8fny\	.	8d/	.	.	.
8e\	.	8e\	.	.	.	8g\	.	8c/	.	.	.
8d\	.	8f\	.	.	.	8f\	.	8d/	.	.	.
8cny\	.	8g\	.	.	.	8e\	.	8e/	.	.	.
8d\	.	8f\	.	.	.	8d\	.	8f\	.	.	.
8e\	.	8e\	.	1C	-de	8c\	.	8g\	.	.	.
8f\	.	8d\	.	.	.	8d\	.	8f\	.	.	.
8g\	.	8c\	.	.	.	8e\	.	8e/	.	.	.
8f\	.	8d\	.	.	.	8f\	.	8d/	.	.	.
4e\	.	4e\	.	.	.	4g\	.	4c/	.	.	.
4c/	-de	4e\	-de	.	.	4g\	-de	4G/	-de	.	.
*custos:c	*	*	*	*	*	*	*	*	*	*	*ij
!LO:LB:g=original	!	!	!	!	!	!	!	!	!	!	!
=14-	=14-	=14-	=14-	=14-	=14-	=14-	=14-	=14-	=14-	=14-	=14-
2c#X/	O	2A/	O	4r	.	2e\	O	0r	.	4r	.
.	.	.	.	4A\	O	.	.	.	.	4ee\	O
2.c#/	Tir-	2.a\	Tir-	2.A\	Tir-	2.e\	Tir-	.	.	2.aa\	Tir-
4c#/	-ſi o	4a\	-ſi o	4A\	-ſi o	4e\	-ſi o	.	.	4ee\	-ſi o
2d\	Tir-	2a\	Tir-	2D/	Tir-	1d\	Tir-	.	.	2ff\	Tir
=15-	=15-	=15-	=15-	=15-	=15-	=15-	=15-	=15-	=15-	=15-	=15-
1e	-ſi i	1a	-ſi	1A	-ſi i	.	.	2r	.	1ee	-ſi
.	.	.	.	.	.	2c#X/	-ſi	4r	.	.	.
.	.	.	.	.	.	.	.	2a\	i-	.	.
*	*	*	*	*custos:d	*	*custos:d	*	*	*	*	*Xij
!	!	!	!	!LO:LB:g=original	!	!	!	!	!	!	!
8f\	ven-	4r	.	8d\	ven-	4r	.	.	.	1r	.
8e\	.	.	.	8c\	.	.	.	.	.	.	.
8d\	.	4f\	i	8B-\	.	4d\	i-	4.b-y\	-ven-	.	.
8cny/	.	.	.	8A\	.	.	.	.	.	.	.
4B-/	.	4g\	ven-	2G\	.	8d\	-ven-	.	.	.	.
.	.	.	.	.	.	8c#/	.	8a\	.	.	.
4G/	-ti	4d\	-ti	.	.	8B-y/	.	8b-\	.	.	.
.	.	.	.	.	.	8A/	.	8cc\	.	.	.
=16-	=16-	=16-	=16-	=16-	=16-	=16-	=16-	=16-	=16-	=16-	=16-
!	!	!LO:N:acc=#	!	!	!	!	!	!	!	!	!
2r	.	2Bn/	i	4G\	-ti	4G/	.	4dd\	.	0r	.
.	.	.	.	4G\	i-	4d\	-ti	2g\	-ti	.	.
*	*	*custos:c	*	*	*	*	*	*	*	*	*
!	!	!LO:LB:g=original	!	!	!	!	!	!	!	!	!
4r	.	2c/	ven-	8c\	-ven-	4r	.	.	.	.	.
.	.	.	.	8B-\	.	.	.	.	.	.	.
4c/	i-	.	.	8A\	.	4e\	i-	4cc\	i-	.	.
.	.	.	.	8G\	.	.	.	.	.	.	.
*	*	*	*	*	*	*	*	*custos:cc	*	*	*
!	!	!	!	!	!	!	!	!LO:LB:g=original	!	!	!
1c	-ven-	2f\	-ti	8F\	.	8a\	-ven-	4.cc\	-ven-	.	.
.	.	.	.	8G\	.	8g\	.	.	.	.	.
.	.	.	.	8A\	.	2f\	.	.	.	.	.
.	.	.	.	8B-\	.	.	.	16b-\	.	.	.
.	.	.	.	.	.	.	.	16a\	.	.	.
.	.	2r	.	2c\	.	.	.	2g\	.	.	.
.	.	.	.	.	.	4e\	.	.	.	.	.
=17-	=17-	=17-	=17-	=17-	=17-	=17-	=17-	=17-	=17-	=17-	=17-
1c	-ti	1r	.	1F	-ti	1f	-ti	1a	-ti	1r	.
2c#X/	O	2e\	O	2A\	O	1r	.	2a\	O	4r	.
.	.	.	.	.	.	.	.	.	.	4ee\	O
2.c#/	Tir-	2.e\	Tir-	2.A\	Tir-	.	.	2.a\	Tir-	2.aa\	Tir-
=18-	=18-	=18-	=18-	=18-	=18-	=18-	=18-	=18-	=18-	=18-	=18-
.	.	.	.	.	.	0r	.	.	.	.	.
4c#yX/	-ſi o	4e\	-ſi o	4A\	-ſi o	.	.	4a\	-ſi o	4ee\	-ſi o
4d\	Tir-	1d	Tir-	2D/	Tir-	.	.	2a\	Tir-	2ff\	Tir
4A/	-ſi	.	.	.	.	.	.	.	.	.	.
*	*	*	*	*custos:A	*	*	*	*	*	*	*
!	!	!	!	!LO:LB:g=original	!	!	!	!	!	!	!
2r	.	.	.	1A	-ſi i	.	.	2a\	-ſi	1ee	-ſi i
2A/	i	2c#X/	-ſi	.	.	.	.	2r	.	.	.
*custos:B-	*	*	*	*	*	*	*	*	*	*	*
!LO:LB:g=original	!	!	!	!	!	!	!	!	!	!	!
=19-	=19-	=19-	=19-	=19-	=19-	=19-	=19-	=19-	=19-	=19-	=19-
8B-/	fior-	2r	.	0G	fior	4r	.	4d/	i	4.gg\	fior-
8cny/	.	.	.	.	.	.	.	.	.	.	.
8d\	.	.	.	.	.	4d\	i	4.g\	fior-	.	.
8c/	.	.	.	.	.	.	.	.	.	16ff\	.
.	.	.	.	.	.	.	.	.	.	16ee\	.
4B-/	.	4d\	i	.	.	4.g\	fior-	.	.	4dd\	.
.	.	.	.	.	.	.	.	16f\	.	.	.
.	.	.	.	.	.	.	.	16e/	.	.	.
4B-/	-i	4.g\	fior-	.	.	.	.	4d/	.	4dd\	-i
.	.	.	.	.	.	16f\	.	.	.	.	.
.	.	.	.	.	.	16e\	.	.	.	.	.
*	*	*	*	*	*	*	*	*	*	*custos:gg	*
!	!	!	!	!	!	!	!	!	!	!LO:LB:g=original	!
8B-/	fior	.	.	.	.	4d\	.	4d/	-i	4.gg\	fior-
8c/	.	16f\	.	.	.	.	.	.	.	.	.
.	.	16e\	.	.	.	.	.	.	.	.	.
8d\	.	4d\	.	.	.	4d\	-i	4.g\	fior	.	.
8c/	.	.	.	.	.	.	.	.	.	16ff\	.
.	.	.	.	.	.	.	.	.	.	16ee\	.
*	*	*	*	*	*	*custos:g	*	*	*	*	*
!	!	!	!	!	!	!LO:LB:g=original	!	!	!	!	!
2B-/	.	4d\	-i	.	.	4.g\	fior	.	.	2dd\	.
.	.	.	.	.	.	.	.	16f\	.	.	.
.	.	.	.	.	.	.	.	16e/	.	.	.
.	.	4.g\	fior	.	.	.	.	4d/	l'her-	.	.
.	.	.	.	.	.	16f\	.	.	.	.	.
.	.	.	.	.	.	16e\	.	.	.	.	.
=20-	=20-	=20-	=20-	=20-	=20-	=20-	=20-	=20-	=20-	=20-	=20-
2r	.	.	.	1G	l'herb'	2d\	.	4.g\	.	8b-\	-l'her-
.	.	16f\	.	.	.	.	.	.	.	8a/	.
.	.	16e\	.	.	.	.	.	.	.	.	.
.	.	4d\	.	.	.	.	.	.	.	8b-\	.
.	.	.	.	.	.	.	.	8a\	.	8ccny\	.
*	*	*	*	*	*	*	*	*custos:b-	*	*	*
!	!	!	!	!	!	!	!	!LO:LB:g=original	!	!	!
2d\	l'herb'	2g\	l'her-	.	.	8B-/	l'her	4b-\	.	2dd\	-be
.	.	.	.	.	.	8A/	.	.	.	.	.
.	.	.	.	.	.	8B-/	.	4g\	-be	.	.
.	.	.	.	.	.	8cny/	.	.	.	.	.
!LO:N:acc=#	!	!	!	!	!	!	!	!	!	!	!
2Bn/	et	2g\	-be	2G\	et	2d\	.	4r	.	4g/	[Et]
.	.	.	.	.	.	.	.	2g\	et	4.gg\	le
2c/	le	2r	.	2E/	fron-	4G/	b'et	.	.	.	.
.	.	.	.	.	.	.	.	.	.	8ff\	.
.	.	.	.	.	.	4g\	le	4.cc\	le	8ee\	.
.	.	.	.	.	.	.	.	.	.	8dd\	.
=21-	=21-	=21-	=21-	=21-	=21-	=21-	=21-	=21-	=21-	=21-	=21-
0A	fron-	4.f\	et	2.F/	.	0a	fron-	.	.	4cc\	.
.	.	.	.	.	.	.	.	8b-\	.	.	.
.	.	.	.	.	.	.	.	8a\	.	2ff\	fron-
.	.	8g\	le	.	.	.	.	8g\	.	.	.
*	*	*custos:a	*	*	*	*	*	*	*	*	*
!	!	!LO:LB:g=original	!	!	!	!	!	!	!	!	!
.	.	2.a\	fron-	.	.	.	.	2f\	.	.	.
.	.	.	.	4G\	.	.	.	.	.	8ee\	.
.	.	.	.	.	.	.	.	.	.	8dd\	.
.	.	.	.	1A	.	.	.	1e	fron-	4cc#X\	.
.	.	8g\	.	.	.	.	.	.	.	2dd\	.
.	.	8f\	.	.	.	.	.	.	.	.	.
.	.	2e\	.	.	.	.	.	.	.	.	.
.	.	.	.	.	.	.	.	.	.	4cc#X\	.
*	*	*	*	*	*	*	*	*	*	*custos:dd	*
!	!	!	!	!	!	!	!	!	!	!LO:LB:g=original	!
=22-	=22-	=22-	=22-	=22-	=22-	=22-	=22-	=22-	=22-	=22-	=22-
1A	-de	1d	-de	0D	-de	2.a\	-de	1f#X	-de	1dd	-de
.	.	.	.	.	.	4g\	.	.	.	.	.
1d	Ei	1r	.	.	.	1f#X	.	2r	.	2r	.
.	.	.	.	.	.	.	.	2a\	Ei	1dd\	Ei
=23-	=23-	=23-	=23-	=23-	=23-	=23-	=23-	=23-	=23-	=23-	=23-
1g	ſol	1G	Ei	00r	.	00r	.	4b-\	ſo	.	.
.	.	.	.	.	.	.	.	4g\	quei	.	.
.	.	.	.	.	.	.	.	1b-	dur'	1gg	ſol
2e\	quei	2g\	ſol	.	.	.	.	.	.	.	.
1f\	du-	4r	.	.	.	.	.	2a\	ac-	2ccny\	quei
.	.	4a\	quei	.	.	.	.	.	.	.	.
*custos:e	*	*	*	*	*	*	*	*	*	*	*
!LO:LB:g=original	!	!	!	!	!	!	!	!	!	!	!
=24-	=24-	=24-	=24-	=24-	=24-	=24-	=24-	=24-	=24-	=24-	=24-
!	!	!	!	!	!	!	!	!LO:N:acc=#	!	!	!
.	.	2d\	dur'	.	.	.	.	2bn\	-cen-	2dd\	dur'
2e\	-r'ac-	2g\	ac-	.	.	.	.	2.cc\	.	2ee\	ac-
1d	-cen-	2.f\	-con-	.	.	.	.	.	.	1.ff	-cen-
.	.	.	.	.	.	.	.	8b\	.	.	.
.	.	.	.	.	.	.	.	8a\	.	.	.
!	!	!	!	!	!	!	!	!LO:N:acc=#	!	!	!
.	.	.	.	.	.	.	.	2bn\	.	.	.
.	.	4g\	.	.	.	.	.	.	.	.	.
*	*	*	*	*	*	*	*	*custos:cc	*	*	*
!	!	!	!	!	!	!	!	!LO:LB:g=original	!	!	!
=25-	=25-	=25-	=25-	=25-	=25-	=25-	=25-	=25-	=25-	=25-	=25-
1c	-ti	2a\	.	1r	.	2r	.	1cc	-ti	.	.
.	.	2g\	-ti	.	.	4r	.	.	.	2ee\	-ti
.	.	.	.	.	.	4c/	Ei	.	.	.	.
4r	.	2r	.	1G	Ei	1g	ſol	1r	.	2r	.
4d\	Ei	.	.	.	.	.	.	.	.	.	.
!	!	!	!	!	!	!	!	!	!	!LO:N:acc=#	!
2g\	ſol	2d\	Ei	.	.	.	.	.	.	2bn/	ei
=26-	=26-	=26-	=26-	=26-	=26-	=26-	=26-	=26-	=26-	=26-	=26-
4g\	non	2e\	ſol	1c	ſol	4r	.	2r	.	1cc	ſol
2g\	v-	.	.	.	.	4c/	ei	.	.	.	.
.	.	4e\	non	.	.	2g\	ſol	4r	.	.	.
4e\	-dia	2cny/	v-	.	.	.	.	4g\	Ei	.	.
*	*	*	*	*	*	*custos:f	*	*	*	*	*
!	!	!	!	!	!	!LO:LB:g=original	!	!	!	!	!
1r	.	.	.	4F/	non	4fny\	non	4cc\	ſol	1r	.
.	.	4A/	-dia	2F/	v-	2f\	v-	4cc\	non	.	.
.	.	1d\	laſ-	.	.	.	.	4a\	v-	.	.
.	.	.	.	4G\	-dia	4B-/	-dia	4g\	-dia	.	.
=27-	=27-	=27-	=27-	=27-	=27-	=27-	=27-	=27-	=27-	=27-	=27-
0r	.	.	.	0E-X	laſ-	0G	laſ-	0g	laſ-	0r	.
.	.	4c/	.	.	.	.	.	.	.	.	.
.	.	4B-y/	.	.	.	.	.	.	.	.	.
*	*	*custos:c	*	*	*	*	*	*	*	*	*
!	!	!LO:LB:g=original	!	!	!	!	!	!	!	!	!
.	.	1c	.	.	.	.	.	.	.	.	.
=28-	=28-	=28-	=28-	=28-	=28-	=28-	=28-	=28-	=28-	=28-	=28-
2r	.	1d	-ſo	1D	-ſo	1A	-ſo	1f#X	-ſo	1r	.
1d	Et	.	.	.	.	.	.	.	.	.	.
.	.	2f#X\	Et	2d\	Et	1r	.	1r	.	2a/	[Et]
*	*	*	*	*custos:G	*	*	*	*	*	*	*
!	!	!	!	!LO:LB:g=original	!	!	!	!	!	!	!
4d\	pur	4g\	pur	4G\	pur	.	.	.	.	4b-y/	pur
4a\	ſe'n	4e\	ſe'n-	4A\	ſe'n	.	.	.	.	4cc\	ſe'n
=29-	=29-	=29-	=29-	=29-	=29-	=29-	=29-	=29-	=29-	=29-	=29-
4.g\	gi-	4d\	-gi-	4B-\	gi-	0r	.	4r	.	4dd\	gi-
.	.	4c/	-ua	4c\	-ua e	.	.	4g\	e	4ee\	-ua e
8e\	-ua e	.	.	.	.	.	.	.	.	.	.
4.a\	pur	2r	.	4d\	pur	.	.	4dd\	pur	4.ff\	pur
.	.	.	.	4A\	dop-	.	.	4cc\	dop-	.	.
8g\	dop-	.	.	.	.	.	.	.	.	8ee\	dop-
*	*	*	*	*	*	*	*	*	*	*custos:dd	*
!	!	!	!	!	!	!	!	!	!	!LO:LB:g=original	!
4.f\	-pia-	1r	.	4B-\	-pia-	.	.	4b-y\	-pia-	4.dd\	-pia
.	.	.	.	4F\	-u'il	.	.	4a\	-u'il	.	.
8e\	-u'il	.	.	.	.	.	.	.	.	8cc\	u'il
2d\	paſ-	.	.	2G\	paſ-	.	.	2g\	paſ-	2b-/	paſ-
*custos:d	*	*	*	*	*	*	*	*	*	*	*
!LO:LB:g=original	!	!	!	!	!	!	!	!	!	!	!
=30-	=30-	=30-	=30-	=30-	=30-	=30-	=30-	=30-	=30-	=30-	=30-
1d	-ſo	2r	.	1D	-ſo	2r	.	2f#X\	-ſo	1a	-ſo
.	.	1f#X	Ei	.	.	1d	Ei	1a	Ei	.	.
1r	.	.	.	1r	.	.	.	.	.	1dd	Ei
.	.	1g\	ſol	.	.	2g\	ſol	1b-\	ſol	.	.
=31-	=31-	=31-	=31-	=31-	=31-	=31-	=31-	=31-	=31-	=31-	=31-
0r	.	.	.	00r	.	2e\	quei	.	.	2gg\	ſol
.	.	4r	.	.	.	1f	dur'	2a\	ques	2cc\	quei
.	.	4a\	quei	.	.	.	.	.	.	.	.
*	*	*	*	*	*	*	*	*custos:b	*	*	*
!	!	!	!	!	!	!	!	!LO:LB:g=original	!	!	!
!	!	!	!	!	!	!	!	!LO:N:acc=#	!	!	!
.	.	2d\	dur'	.	.	.	.	4bn\	dur'	2dd\	du-
.	.	.	.	.	.	.	.	4b\	ac-	.	.
.	.	2g\	ac-	.	.	2e\	ac-	2.cc\	-cen-	2ee\	-ri ac-
=32-	=32-	=32-	=32-	=32-	=32-	=32-	=32-	=32-	=32-	=32-	=32-
1r	.	2.fny\	-cen-	.	.	1d	-cen-	.	.	1.ff	-cen-
.	.	.	.	.	.	.	.	8b-y\	.	.	.
.	.	.	.	.	.	.	.	8a\	.	.	.
!	!	!	!	!	!	!	!	!LO:N:acc=#	!	!	!
.	.	.	.	.	.	.	.	2bn\	.	.	.
.	.	4g\	.	.	.	.	.	.	.	.	.
2r	.	2a\	.	.	.	1c	-ti	1cc	-ti	.	.
4r	.	2g\	-ti	.	.	.	.	.	.	2ee\	-ti
4c/	Ei	.	.	.	.	.	.	.	.	.	.
=33-	=33-	=33-	=33-	=33-	=33-	=33-	=33-	=33-	=33-	=33-	=33-
1g	ſol	2r	.	1G	Et	4r	.	1r	.	00r	.
.	.	.	.	.	.	4d\	Et	.	.	.	.
.	.	2d\	Ei	.	.	2g\	ſol	.	.	.	.
4r	.	2e\	ſol	1c	ſol	4g\	non	2r	.	.	.
4c/	Ei	.	.	.	.	2g\	v-	.	.	.	.
2g\	ſol	4e\	non	.	.	.	.	4r	.	.	.
*	*	*custos:c	*	*	*	*	*	*	*	*	*
!	!	!LO:LB:g=original	!	!	!	!	!	!	!	!	!
.	.	2c/	v-	.	.	4e\	-dia	4g\	Et	.	.
=34-	=34-	=34-	=34-	=34-	=34-	=34-	=34-	=34-	=34-	=34-	=34-
4f\	non	.	.	4F/	non	00r	.	4cc\	ſol	.	.
2f\	v-	4A/	-dia	2F/	u-	.	.	4cc\	non	.	.
.	.	1d	laſ-	.	.	.	.	4a\	v-	.	.
4B-y/	-dia	.	.	4G\	-dia	.	.	4g\	-dia	.	.
0G	laſ-	.	.	0E-X	laſ-	.	.	0g	laſ-	.	.
.	.	4c/	.	.	.	.	.	.	.	.	.
.	.	4B-/	.	.	.	.	.	.	.	.	.
=35-	=35-	=35-	=35-	=35-	=35-	=35-	=35-	=35-	=35-	=35-	=35-
.	.	1c	.	.	.	.	.	.	.	0r	.
1A	-ſo	1d	-ſo	1D	-ſo	.	.	1f#X	-ſo	.	.
=36-	=36-	=36-	=36-	=36-	=36-	=36-	=36-	=36-	=36-	=36-	=36-
4r	.	2f#X\	Et	0r	.	2d\	[Et]	1r	.	2a/	Et
4d\	Et	.	.	.	.	.	.	.	.	.	.
*	*	*	*	*	*	*custos:G	*	*	*	*	*
!	!	!	!	!	!	!LO:LB:g=original	!	!	!	!	!
4d\	pur	4g\	pur	.	.	4G/	pur	.	.	4b-\	pur
4a\	ſe'n	4e\	ſe'n-	.	.	4A/	ſe'n	.	.	4cc\	ſi'n
4.g\	gi-	4d\	-gi-	.	.	4B-/	gi-	4r	.	4dd\	gi-
.	.	4c/	-ua	.	.	4c/	-ua e	4g\	e	4ee\	-ua e
8e\	-ua e	.	.	.	.	.	.	.	.	.	.
4.a\	pur	2r	.	.	.	4d\	pur	4dd\	pur	4.ff\	pur
.	.	.	.	.	.	4A/	dop-	4cc\	dop-	.	.
8g\	dop-	.	.	.	.	.	.	.	.	8ee\	dop-
*custos:f	*	*	*	*	*	*	*	*	*	*custos:dd	*
!LO:LB:g=original	!	!	!	!	!	!	!	!	!	!LO:LB:g=original	!
=37-	=37-	=37-	=37-	=37-	=37-	=37-	=37-	=37-	=37-	=37-	=37-
4.f\	-pia-	1r	.	1r	.	4B-/	-pia-	4b-y\	-pia-	4.dd\	-pia-
.	.	.	.	.	.	4F/	-u'il	4a\	-u'il	.	.
8e\	-u'il	.	.	.	.	.	.	.	.	8cc\	-u'il
2.d\	paſ-	.	.	.	.	2G/	paſ-	2g\	paſ-	2b-/	paſ-
*	*	*	*	*	*	*	*	*custos:e	*	*	*
!	!	!	!	!	!	!	!	!LO:LB:g=original	!	!	!
.	.	4r	.	2r	.	1.A	-ſo	2e/	-ſo	2a/	-ſo
8c#X/	.	4a\	e	.	.	.	.	.	.	.	.
!LO:N:acc=#	!	!	!	!	!	!	!	!	!	!	!
8Bn/	.	.	.	.	.	.	.	.	.	.	.
2c#X/	.	4.a\	pur	2A\	Et	.	.	2e/	e	2r	.
.	.	8g\	dop-	.	.	.	.	.	.	.	.
*	*	*	*	*custos:D	*	*	*	*	*	*	*
!	!	!	!	!LO:LB:g=original	!	!	!	!	!	!	!
=38-	=38-	=38-	=38-	=38-	=38-	=38-	=38-	=38-	=38-	=38-	=38-
1d	-ſo	4fny\	-pia-	4D/	pur	.	.	4fny\	pur	2r	.
.	.	4e\	-u'il	4Eny/	ſe'n	.	.	4g\	ſe'n	.	.
.	.	2d\	paſ-	4F/	gi-	4r	.	4a\	gi-	4r	.
.	.	.	.	4G\	-ua e	4g\	e	4b-\	-ua e	4dd\	e
1r	.	1c	-ſo	4A\	pur	4.e\	pur	4.cc\	pur	4aa\	pur
.	.	.	.	4E/	dop-	.	.	.	.	4gg\	dop-
.	.	.	.	.	.	8d\	dop-	8b-\	dop-	.	.
.	.	.	.	4F/	-pia-	4.c/	-pia-	4.a\	-pia-	4ff\	-pia-
.	.	.	.	4C/	-u'il	.	.	.	.	4ee\	-u'il
.	.	.	.	.	.	8B-/	-u'il	8g\	-u'il	.	.
=39-	=39-	=39-	=39-	=39-	=39-	=39-	=39-	=39-	=39-	=39-	=39-
4r	.	4r	.	2D/	paſ-	2A/	paſ-	2f\	paſ-	2dd\	paſ-
4d\	e	4a\	e	.	.	.	.	.	.	.	.
*	*	*custos:a	*	*	*	*	*	*	*	*	*
!	!	!LO:LB:g=original	!	!	!	!	!	!	!	!	!
4.e\	pur	4a\	pur	4AA/	-ſo	2A/	-ſo	2e/	-ſo	4cc#X\	-ſo
.	.	4e\	dop-	4A\	[Et]	.	.	.	.	4ee\	e
8d\	dop-	.	.	.	.	.	.	.	.	.	.
4.cny/	-pia-	4f\	-pia-	4A\	pur	2r	.	4r	.	4aa\	pur
.	.	4g\	-u'il	4E/	do-	.	.	4cc\	e	4gg\	dop-
8B-y/	-u'il	.	.	.	.	.	.	.	.	.	.
2A/	paſ-	4a\	paſ-	4F/	-pia-	2a\	E	4.cc\	pur	4ff\	-pia-
.	.	4e\	-ſo	4C/	-u'il	.	.	.	.	4ee\	-u'il
.	.	.	.	.	.	.	.	8b-\	do-	.	.
*	*	*	*	*	*	*custos:d	*	*	*	*	*
!	!	!	!	!	!	!LO:LB:g=original	!	!	!	!	!
=40-	=40-	=40-	=40-	=40-	=40-	=40-	=40-	=40-	=40-	=40-	=40-
4A/	-ſo	4r	.	0.D	paſ-	4.d\	pur	4.a\	-pia-	0.dd	paſ-
4a\	e	4f\	e	.	.	.	.	.	.	.	.
.	.	.	.	.	.	8e\	ſe'n	8g\	-u'il	.	.
4d\	pur	4a\	pur	.	.	4f\	gi-	2f\	paſ-	.	.
4e\	ſe'n	4g\	do-	.	.	4g\	-ua e	.	.	.	.
*custos:f	*	*	*	*	*	*	*	*	*	*	*
!LO:LB:g=original	!	!	!	!	!	!	!	!	!	!	!
4.f\	gi-	4.f\	-pia-	.	.	4.a\	pur	2d/	-ſo	.	.
8g\	-ua e	8e\	-u'il	.	.	8g\	dop-	.	.	.	.
4.a\	pur	2d\	paſ-	.	.	4.f\	-pia-	4r	.	.	.
.	.	.	.	.	.	.	.	4a\	il	.	.
8g\	dop-	.	.	.	.	8e\	-u'il	.	.	.	.
=41-	=41-	=41-	=41-	=41-	=41-	=41-	=41-	=41-	=41-	=41-	=41-
4.f\	-pia-	00A	-ſo.	.	.	4.d\	paſ-	1a	paſ-	.	.
8e\	-u'il	.	.	.	.	8e\	.	.	.	.	.
2d\	paſ-	.	.	.	.	2f\	.	.	.	.	.
00c#X	-ſo.	.	.	00AA	-ſo.	00e	-ſo.	00a	-ſo.	00ee	-ſo.
=42-	=42-	=42-	=42-	=42-	=42-	=42-	=42-	=42-	=42-	=42-	=42-
.	.	0ryy	.	.	.	.	.	.	.	.	.
1ryy	.	.	.	1ryy	.	1ryy	.	1ryy	.	1ryy	.
==	==	==	==	==	==	==	==	==	==	==	==
*-	*-	*-	*-	*-	*-	*-	*-	*-	*-	*-	*-
!!!system-decoration: [(s1,s2,s3,s4,s5,s6)]
!!!ENC: Andrzej Gręziak
!!!END: 2022-06-13
!!!ENC: Natalia Wrzos
!!!END: 2022-07-23
